assets/googlecloudcomposer/mono.svg

<svg viewBox="0 0 24 24" xmlns="http://www.w3.org/2000/svg"><path d="m9.636 4.752h-6.42v-4.752h17.556v4.728h-6.36v6.396h-4.776zm-6.42 1.692h4.74v6.36h6.408v11.196h-4.728v-6.42h-6.42zm12.84-.012h4.728v17.568h-4.728zm-8.136 17.568h-4.704v-4.728h4.704z"/></svg>

<svg xmlns="http://www.w3.org/2000/svg" viewBox="0 0 24 24"><path d="M9.636 4.752h-6.42V0h17.556v4.728h-6.36v6.396H9.636zm-6.42 1.692h4.74v6.36h6.408V24H9.636v-6.42h-6.42zm12.84-.012h4.728V24h-4.728zM7.92 24H3.216v-4.728H7.92z"/></svg>
